X: 126007
M: 2/4
L: 1/16
K: G
ud2 |\
g2bg d2gd | BcdB G2B2 |\
c2ec A2cA | FGAB cdef |\
g2bg d2gd | BcdB G2(AB) |\
cedc BAGF | A2G2G2 :|
|: (Bc) |\
d2(d^c) dBGB | c2(cB) cAFA |\
d2(d^c) dBGB | c2(cB) cAFA |\
cedc    BAGF | A2G2G2 :|


